www/assets/icons/coronavirus.svg

<svg width="24" height="24" viewBox="0 0 24 24" xmlns="http://www.w3.org/2000/svg" fill='currentColor'><path d="M21.2549 10.5C20.8449 10.5 20.5049 10.84 20.5049 11.25H18.9649C18.8149 9.88 18.2749 8.62 17.4449 7.6L18.5349 6.51L18.5449 6.52C18.8349 6.81 19.3149 6.81 19.6049 6.52C19.8949 6.23 19.8949 5.75 19.6049 5.46L18.5449 4.4C18.2549 4.11 17.7749 4.11 17.4849 4.4C17.1949 4.69 17.1949 5.16 17.4749 5.45L16.3849 6.54C15.3649 5.72 14.1149 5.18 12.7449 5.03V3.5H12.7549C13.1649 3.5 13.5049 3.16 13.5049 2.75C13.5049 2.34 13.1649 2 12.7549 2H11.2549C10.8449 2 10.5049 2.34 10.5049 2.75C10.5049 3.16 10.8349 3.49 11.2449 3.5V5.05C9.87488 5.19 8.62488 5.74 7.60488 6.56L6.51488 5.47L6.52488 5.46C6.81488 5.17 6.81488 4.69 6.52488 4.4C6.23488 4.11 5.75488 4.11 5.46488 4.4L4.40488 5.46C4.11488 5.75 4.11488 6.23 4.40488 6.52C4.69488 6.81 5.16488 6.81 5.45488 6.53L6.54488 7.62C5.72488 8.64 5.18488 9.88 5.04488 11.25H3.50488C3.50488 10.84 3.16488 10.5 2.75488 10.5C2.34488 10.5 2.00488 10.84 2.00488 11.25V12.75C2.00488 13.16 2.34488 13.5 2.75488 13.5C3.16488 13.5 3.50488 13.16 3.50488 12.75H5.04488C5.19488 14.12 5.73488 15.36 6.54488 16.38L5.45488 17.47C5.16488 17.18 4.69488 17.19 4.40488 17.48C4.11488 17.77 4.11488 18.25 4.40488 18.54L5.46488 19.6C5.75488 19.89 6.23488 19.89 6.52488 19.6C6.81488 19.31 6.81488 18.83 6.52488 18.54L6.51488 18.53L7.60488 17.44C8.62488 18.26 9.86488 18.8 11.2349 18.95V20.5C10.8249 20.51 10.4949 20.84 10.4949 21.25C10.4949 21.66 10.8349 22 11.2449 22H12.7449C13.1549 22 13.4949 21.66 13.4949 21.25C13.4949 20.84 13.1549 20.5 12.7449 20.5H12.7349V18.96C14.1049 18.82 15.3549 18.27 16.3749 17.45L17.4649 18.54C17.1749 18.83 17.1849 19.3 17.4749 19.59C17.7649 19.88 18.2449 19.88 18.5349 19.59L19.5949 18.53C19.8849 18.24 19.8849 17.76 19.5949 17.47C19.3049 17.18 18.8249 17.18 18.5349 17.47L18.5249 17.48L17.4349 16.39C18.2549 15.37 18.8049 14.12 18.9549 12.74H20.4949C20.4949 13.15 20.8349 13.49 21.2449 13.49C21.6549 13.49 21.9949 13.15 21.9949 12.74V11.24C22.0049 10.84 21.6649 10.5 21.2549 10.5ZM13.7549 8C14.3049 8 14.7549 8.45 14.7549 9C14.7549 9.55 14.3049 10 13.7549 10C13.2049 10 12.7549 9.55 12.7549 9C12.7549 8.45 13.2049 8 13.7549 8ZM12.0049 13C11.4549 13 11.0049 12.55 11.0049 12C11.0049 11.45 11.4549 11 12.0049 11C12.5549 11 13.0049 11.45 13.0049 12C13.0049 12.55 12.5549 13 12.0049 13ZM10.2549 8C10.8049 8 11.2549 8.45 11.2549 9C11.2549 9.55 10.8049 10 10.2549 10C9.70488 10 9.25488 9.55 9.25488 9C9.25488 8.45 9.70488 8 10.2549 8ZM8.50488 13C7.95488 13 7.50488 12.55 7.50488 12C7.50488 11.45 7.95488 11 8.50488 11C9.05488 11 9.50488 11.45 9.50488 12C9.50488 12.55 9.05488 13 8.50488 13ZM10.2549 16C9.70488 16 9.25488 15.55 9.25488 15C9.25488 14.45 9.70488 14 10.2549 14C10.8049 14 11.2549 14.45 11.2549 15C11.2549 15.55 10.8049 16 10.2549 16ZM13.7549 16C13.2049 16 12.7549 15.55 12.7549 15C12.7549 14.45 13.2049 14 13.7549 14C14.3049 14 14.7549 14.45 14.7549 15C14.7549 15.55 14.3049 16 13.7549 16ZM14.5049 12C14.5049 11.45 14.9549 11 15.5049 11C16.0549 11 16.5049 11.45 16.5049 12C16.5049 12.55 16.0549 13 15.5049 13C14.9549 13 14.5049 12.55 14.5049 12Z"/></svg>

<svg xmlns="http://www.w3.org/2000/svg" width="24" height="24" viewBox="0 0 24 24" fill='currentColor'><path d="M21.255 10.5c-.41 0-.75.34-.75.75h-1.54a7 7 0 0 0-1.52-3.65l1.09-1.09.01.01c.29.29.77.29 1.06 0s.29-.77 0-1.06l-1.06-1.06a.754.754 0 0 0-1.06 0c-.29.29-.29.76-.01 1.05l-1.09 1.09a7 7 0 0 0-3.64-1.51V3.5h.01c.41 0 .75-.34.75-.75s-.34-.75-.75-.75h-1.5c-.41 0-.75.34-.75.75s.33.74.74.75v1.55c-1.37.14-2.62.69-3.64 1.51l-1.09-1.09.01-.01c.29-.29.29-.77 0-1.06a.754.754 0 0 0-1.06 0l-1.06 1.06c-.29.29-.29.77 0 1.06s.76.29 1.05.01l1.09 1.09a6.9 6.9 0 0 0-1.5 3.63h-1.54c0-.41-.34-.75-.75-.75s-.75.34-.75.75v1.5c0 .41.34.75.75.75s.75-.34.75-.75h1.54c.15 1.37.69 2.61 1.5 3.63l-1.09 1.09a.74.74 0 0 0-1.05.01c-.29.29-.29.77 0 1.06l1.06 1.06c.29.29.77.29 1.06 0s.29-.77 0-1.06l-.01-.01 1.09-1.09c1.02.82 2.26 1.36 3.63 1.51v1.55c-.41.01-.74.34-.74.75s.34.75.75.75h1.5c.41 0 .75-.34.75-.75s-.34-.75-.75-.75h-.01v-1.54c1.37-.14 2.62-.69 3.64-1.51l1.09 1.09c-.29.29-.28.76.01 1.05s.77.29 1.06 0l1.06-1.06c.29-.29.29-.77 0-1.06a.754.754 0 0 0-1.06 0l-.01.01-1.09-1.09a7.03 7.03 0 0 0 1.52-3.65h1.54c0 .41.34.75.75.75s.75-.34.75-.75v-1.5c.01-.4-.33-.74-.74-.74m-7.5-2.5c.55 0 1 .45 1 1s-.45 1-1 1-1-.45-1-1 .45-1 1-1m-1.75 5c-.55 0-1-.45-1-1s.45-1 1-1 1 .45 1 1-.45 1-1 1m-1.75-5c.55 0 1 .45 1 1s-.45 1-1 1-1-.45-1-1 .45-1 1-1m-1.75 5c-.55 0-1-.45-1-1s.45-1 1-1 1 .45 1 1-.45 1-1 1m1.75 3c-.55 0-1-.45-1-1s.45-1 1-1 1 .45 1 1-.45 1-1 1m3.5 0c-.55 0-1-.45-1-1s.45-1 1-1 1 .45 1 1-.45 1-1 1m.75-4c0-.55.45-1 1-1s1 .45 1 1-.45 1-1 1-1-.45-1-1"/></svg>
